app/dist/common/images/sab-biotherapeutics.svg

<svg height="18" viewBox="0 0 18 18" width="18" xmlns="http://www.w3.org/2000/svg"><path d="m0 0h18v18h-18z" fill="#e4e6d7"/><path d="m9 10.66-1-.53-2.67 1.43v2.44l3.67-1.95 3.67 1.95v-2.44l-2.68-1.43z" fill="#8e3615"/><path d="m10.33 8.57v1.05l2.49 1.42 2.18-1.22-3.33-1.94v-3.88l-2.34 1.23v2.83l1 .5z" fill="#d3b524"/><path d="m7.67 8.57 1-.52v-2.82l-2.34-1.23v3.88l-3.33 1.94 2.18 1.22 2.49-1.42z" fill="#3b4336"/></svg>

<!-- by TradingView --><svg xmlns="http://www.w3.org/2000/svg" width="18" height="18" viewBox="0 0 18 18"><path fill="#E4E6D7" d="M0 0h18v18H0z"/><path d="m9 10.66-1-.53-2.67 1.43V14L9 12.05 12.67 14v-2.44l-2.68-1.43-.99.53Z" fill="#8E3615"/><path d="M10.33 8.57v1.05l2.49 1.42L15 9.82l-3.33-1.94V4L9.33 5.23v2.83l1 .5Z" fill="#D3B524"/><path d="m7.67 8.57 1-.52V5.23L6.33 4v3.88L3 9.82l2.18 1.22 2.49-1.42V8.57Z" fill="#3B4336"/></svg>
